icons/file-moved-24.svg

<svg width="24" height="24" viewBox="0 0 24 24">
  <path
    d="M3 3C3 1.89543 3.89543 1 5 1H14.9822C15.5127 1 16.0214 1.21071 16.3964 1.58579L20.4142 5.60355C20.7893 5.97863 21 6.48733 21 7.01777V21C21 22.1046 20.1046 23 19 23H4.75C4.33579 23 4 22.6642 4 22.25C4 21.8358 4.33579 21.5 4.75 21.5H19C19.2761 21.5 19.5 21.2761 19.5 21L19.4997 7C19.4952 6.87384 19.4431 6.75379 19.3536 6.66421L15.3358 2.64645C15.2462 2.55687 15.1262 2.5048 15 2.50032L5 2.5C4.72386 2.5 4.5 2.72386 4.5 3V9.25C4.5 9.66421 4.16421 10 3.75 10C3.33579 10 3 9.66421 3 9.25V3Z"
  />
  <path
    d="M7.21002 14.25H1.75C1.33579 14.25 1 14.5858 1 15C1 15.4142 1.33579 15.75 1.75 15.75H7.21002C7.21002 15.75 7.20219 17.9986 7.21002 19.006C7.21143 19.1874 7.27822 19.3687 7.41171 19.5117C7.69434 19.8146 8.16893 19.8309 8.47174 19.5483L12.7574 15.5483C12.9094 15.4065 12.9957 15.2079 12.9957 15C12.9957 14.7921 12.9094 14.5936 12.7574 14.4517L8.47174 10.4517C8.16893 10.1691 7.69434 10.1855 7.41171 10.4883C7.27662 10.633 7.20984 10.817 7.21 11.0005C7.21089 12.0107 7.21002 14.25 7.21002 14.25Z"
  />
</svg>

<svg xmlns="http://www.w3.org/2000/svg" width="24" height="24" viewBox="0 0 24 24"><path d="M3 3a2 2 0 0 1 2-2h9.982a2 2 0 0 1 1.414.586l4.018 4.018A2 2 0 0 1 21 7.018V21a2 2 0 0 1-2 2H4.75a.75.75 0 0 1 0-1.5H19a.5.5 0 0 0 .5-.5V7a.5.5 0 0 0-.146-.336l-4.018-4.018A.5.5 0 0 0 15 2.5H5a.5.5 0 0 0-.5.5v6.25a.75.75 0 0 1-1.5 0V3Z"/><path d="M7.21 14.25H1.75a.75.75 0 0 0 0 1.5h5.46s-.008 2.249 0 3.256a.75.75 0 0 0 1.262.542l4.285-4a.75.75 0 0 0 0-1.096l-4.285-4A.75.75 0 0 0 7.21 11v3.249Z"/></svg>
